X:0657
T:Duke of York's March
S:Aird's Airs v4 (NLS Glen.16b)
M:C
L:1/8
Q:1/4=120
I: :: ::
Z:Jack Campin * www.campin.me.uk * 2009
K:G
G2 G>G B2B>B| dBdB  G2dd    |gdgd   gdBG |d2  d>d d2 z2 |
d'3  b g2g2 | a2ac' b2zd'   |d'3 b  bgc'b|a2  a>a a2 z2:|
d2 d>d dabc'| d2d>d dgbd'   |c'aaa  bggg |e'd'c'b b2 a2 |
g2 ba  gde=f|=fee4 ^f/g/a/b/|c'c'bb aagg |f2  a>a a2 z2 |
G2 G>G B2B>B| dBdB  G2c'2   |bd'c'b c'agf|g2  g>g g2 z2:|
<end>
<start>
